flaticon/business/cart-8.svg

<svg xmlns="http://www.w3.org/2000/svg" width="32" height="32" viewBox="0 0 24 24">
    <path d="M 4.671875 5.203125 L 4.339844 3.203125 L 3.140625 3.203125 C 2.964844 2.515625 2.34375 2.003906 1.601562 2.003906 C 0.71875 2.003906 0 2.71875 0 3.601562 C 0 4.484375 0.71875 5.203125 1.601562 5.203125 C 2.34375 5.203125 2.964844 4.6875 3.140625 4 L 3.660156 4 L 3.859375 5.203125 L 3.84375 5.203125 L 5.914062 15.605469 C 4.925781 15.679688 4.105469 16.441406 4.007812 17.394531 C 3.953125 17.957031 4.136719 18.519531 4.515625 18.9375 C 4.894531 19.355469 5.4375 19.597656 6 19.597656 L 6.796875 19.597656 C 6.796875 20.921875 7.875 21.996094 9.199219 21.996094 C 10.519531 21.996094 11.597656 20.921875 11.597656 19.597656 L 15.996094 19.597656 C 15.996094 20.921875 17.074219 21.996094 18.394531 21.996094 C 19.71875 21.996094 20.796875 20.921875 20.796875 19.597656 L 22.394531 19.597656 C 22.617188 19.597656 22.796875 19.417969 22.796875 19.199219 C 22.796875 18.976562 22.617188 18.796875 22.394531 18.796875 L 20.65625 18.796875 C 20.324219 17.867188 19.4375 17.199219 18.394531 17.199219 C 17.351562 17.199219 16.46875 17.867188 16.136719 18.796875 L 11.457031 18.796875 C 11.128906 17.867188 10.242188 17.199219 9.199219 17.199219 C 8.15625 17.199219 7.269531 17.867188 6.9375 18.796875 L 6 18.796875 C 5.660156 18.796875 5.339844 18.652344 5.109375 18.402344 C 4.878906 18.144531 4.769531 17.816406 4.804688 17.476562 C 4.867188 16.871094 5.421875 16.398438 6.074219 16.398438 L 6.386719 16.398438 C 6.394531 16.398438 6.402344 16.398438 6.410156 16.398438 L 15.328125 16.394531 L 22.003906 16.394531 C 23.105469 16.394531 24 15.5 24 14.398438 L 24 5.195312 Z M 1.601562 4.402344 C 1.160156 4.402344 0.800781 4.042969 0.800781 3.601562 C 0.800781 3.160156 1.160156 2.800781 1.601562 2.800781 C 2.039062 2.800781 2.398438 3.160156 2.398438 3.601562 C 2.398438 4.042969 2.039062 4.402344 1.601562 4.402344 Z M 18.394531 18 C 19.277344 18 19.996094 18.714844 19.996094 19.597656 C 19.996094 20.480469 19.277344 21.199219 18.394531 21.199219 C 17.515625 21.199219 16.796875 20.480469 16.796875 19.597656 C 16.796875 18.714844 17.515625 18 18.394531 18 Z M 9.199219 18 C 10.082031 18 10.796875 18.714844 10.796875 19.597656 C 10.796875 20.480469 10.082031 21.199219 9.199219 21.199219 C 8.316406 21.199219 7.597656 20.480469 7.597656 19.597656 C 7.597656 18.714844 8.316406 18 9.199219 18 Z M 23.199219 12.082031 L 19.6875 15.59375 L 16.292969 15.597656 L 23.199219 8.691406 Z M 23.199219 7.558594 L 15.164062 15.597656 L 11.769531 15.597656 L 21.371094 5.996094 L 23.199219 5.996094 Z M 7.242188 15.597656 L 16.84375 5.996094 L 20.238281 5.996094 L 10.636719 15.597656 Z M 5.3125 8.480469 L 7.792969 6 L 11.1875 6 L 5.875 11.3125 Z M 6.660156 6 L 5.125 7.535156 L 4.820312 6 Z M 6.0625 12.253906 L 12.316406 6 L 15.710938 6 L 6.644531 15.066406 C 6.636719 15.074219 6.632812 15.085938 6.625 15.09375 Z M 22.003906 15.59375 L 20.820312 15.59375 L 23.199219 13.214844 L 23.199219 14.398438 C 23.199219 15.058594 22.664062 15.59375 22.003906 15.59375 Z M 22.003906 15.59375"/>
</svg>

<svg xmlns="http://www.w3.org/2000/svg" width="32" height="32" viewBox="0 0 24 24">
    <path d="M4.672 5.203l-.332-2h-1.2a1.592 1.592 0 0 0-1.538-1.2A1.6 1.6 0 0 0 0 3.603c0 .882.719 1.601 1.602 1.601.742 0 1.363-.516 1.539-1.203h.52l.198 1.203h-.015l2.07 10.402c-.988.075-1.809.836-1.906 1.79a2.01 2.01 0 0 0 .508 1.543c.379.417.921.66 1.484.66h.797a2.401 2.401 0 0 0 4.8 0h4.4a2.401 2.401 0 0 0 4.8 0h1.598a.401.401 0 1 0 0-.801h-1.739a2.404 2.404 0 0 0-2.261-1.598 2.4 2.4 0 0 0-2.258 1.598h-4.68a2.396 2.396 0 0 0-4.52 0H6c-.34 0-.66-.145-.89-.395a1.191 1.191 0 0 1-.305-.925c.062-.606.617-1.079 1.27-1.079h.335l8.918-.003h6.676A1.997 1.997 0 0 0 24 14.398V5.195zm-3.07-.8a.802.802 0 0 1 0-1.602.801.801 0 0 1 0 1.601zM18.395 18a1.6 1.6 0 0 1 1.601 1.598c0 .882-.719 1.601-1.601 1.601a1.6 1.6 0 1 1 0-3.2zm-9.196 0a1.6 1.6 0 0 1 0 3.2 1.604 1.604 0 0 1-1.601-1.602A1.6 1.6 0 0 1 9.199 18zm14-5.918l-3.512 3.512-3.394.004 6.906-6.907zm0-4.523l-8.035 8.039H11.77l9.601-9.602H23.2zM7.242 15.598l9.602-9.602h3.394l-9.601 9.602zM5.312 8.48L7.793 6h3.394l-5.312 5.313zM6.66 6L5.125 7.535 4.82 6zm-.598 6.254L12.316 6h3.395l-9.066 9.066c-.008.008-.012.02-.02.028zm15.942 3.34H20.82l2.38-2.38v1.184c0 .66-.536 1.196-1.196 1.196zm0 0"/>
</svg>
